X:852
T:Si Morag A Rinn A Bhanais 
C:Joe Buchanan's Scottish Tome - Page 417.1
I:417 1
C:Morag's Weedding
R:Strathspey
Z:Carl Allison
L:1/8
M:4/4
K:C
"A"A<AA>c "E7"B<BB>c | "A"A<Ac>e "A"a>e"D"f<d | "A"c<AA>c "E7"B<BB>c | "G"d>BG<B "G"d2 "E7"(e>c) :|
"A"A<ce>A "D"f<Ae>c | "A"A<ce>A "A"c<ee<a | "A"A<ce>A "D"f<Ae>c | "G"d>BG<B d2 "E7"(e>c) |
"A"A<ce>A "D"f<A"A"e>c | "A"A<ce>A (c<e) ((3ef=g) | "D"a<f"Em"g>e f<d"A"e>c | "G"d>BG<B "G"d2 e2 |]

